X:1
T:Title
%%score { ( 1 3 ) | ( 2 4 ) }
L:1/8
M:4/4
K:F
V:1 treble nm="Grand Piano"
V:3 treble 
V:2 bass 
V:4 bass 
V:1
 z4 z2 z[Q:1/4=100] [DB] | [DB]3 [DA] [^CA]2 [CG]2 | z2 [CF][DF] [_EF]2 [CF]2 | [DF]2 F2 B3 c | %4
 A6 [GA]2 | [^Fd]2 [Fc]2 [FB]2 [FA]2 | A3 G B2 A2 | A2 G2 F2 G2 | A4 z2 A2 | A3 A c2 B2 | %10
 F2 G2 A2 A2 | A2 [G_e]2 [^Fd]2 [Fc]2 | B6 z2 | [Bg]3 [GB] [GB]2 [CFA]2 | [_Af]3 [FA] [FA]2 G2 | %15
 A2 B2 G2 A2 |[M:7/8] [DB]-[DB]-[DB]- [DB]3 z |] %17
V:2
 z4 z2 z [B,,F,] | [B,,F,]3 [B,,F,] [B,,E,]2 [B,,E,]2 | z2 [A,,F,][B,,F,] [C,F,]2 [A,,F,]2 | %3
 [B,,F,]2 [D,B,]2 [G,B,E]3 [G,B,E] | [F,CF]6 [E,^C]2 | [D,D]2 [D,A,]2 [D,D]2 [D,C]2 | %6
 [G,C^F]3 [G,B,] [G,DG]2 [A,D=F]2 | [B,D]2 [B,D]2 [B,D]2 [B,DE]2 | [A,^CE]4 z2[K:bass] [F,=CF]2 | %9
 [F,CF]3 [F,CF] [F,A,_E]2 [F,B,D]2 | [F,B,D]2 [F,B,^C]2 [F,A,=C]2 [_E,G,C]2 | %11
 [D,F,C]2 [D,C]2 [D,B,]2 [D,A,]2 | [G,G]6 [F,^C]2 | C6 z2 | [D,B,]3 [D,B,] [D,B,]2 [_E,B,_E]2 | %15
 [E,A,^C]2 [E,G,C]2 [F,DF]2 [F,=C_E]2 |[M:7/8] [B,,B,]-[B,,B,]-[B,,B,]- [B,,B,]3 z |] %17
V:3
 x8 | x8 | x8 | x8 | x8 | x8 | x8 | x8 | x8 | x8 | x8 | x8 | z2 _E2 D2 [GB]2 | x8 | x8 | x8 | %16
[M:7/8] x7 |] %17
V:4
 x8 | x8 | x8 | x8 | x8 | x8 | x8 | x8 | x6[K:bass] x2 | x8 | x8 | x8 | x8 | E,3 E, E,2 F,2 | x8 | %15
 x8 |[M:7/8] x7 |] %17

